!!!COM:	Bach, Johann Sebastian
!!!OMV:	Herr Christ, der ein'ge Gotts Sohn
!!!OTL:	Herr Christ, der ein'ge Gotts Sohn
**kern	**fb	**kern	**kern	**kern
*part4	*part4	*part3	*part2	*part1
*staff4	*	*staff3	*staff2	*staff1
*I"Voice	*	*I"Voice	*I"Voice	*I"Voice
*I'V	*	*I'V	*I'V	*I'V
*clefF4	*	*clefGv2	*clefG2	*clefG2
*k[b-]	*	*k[b-]	*k[b-]	*k[b-]
*M4/4	*	*M4/4	*M4/4	*M4/4
4F	.	4A	4c	4f
=2	=2	=2	=2	=2
4BB-	5 3	4B-	8dL	8fL
.	6 4	.	8eJ	8gJ
4F	.	4c	4f	4a
4C	.	8cL	4e	4g
.	.	8B-J	.	.
4D	.	4A	4d	4f
=3	=3	=3	=3	=3
4GG	6 5	4B-	4d	2e
4AA	#	8AL	4c#X	.
.	.	8GJ	.	.
4D;	.	4F;	4A;	4d;
4D	#	4d	4f#X	4a
=4	=4	=4	=4	=4
8GL	.	4d	8gL	4b-
8AJ	.	.	8fnJ	.
4B-	6 4 2	4cn	4e	4g
8AL	6	4c	4f	4a
8FJ	.	.	.	.
4c	.	8cL	4e	4g
.	.	8B-J	.	.
=	=	=	=	=
2.F;	.	2.A;	2.c;	2.f;
=5:|!	=5:|!	=5:|!	=5:|!	=5:|!
8FL	.	4A	4c	8fL
8EJ	.	.	.	8gJ
=6	=6	=6	=6	=6
4D	.	4d	4f	4a
4C	6 #4| 2	4d	4f#X	4a
8BB-L	6	4d	4g	4b-
8AAJ	.	.	.	.
4GG	.	4d	4g	4b-
=7	=7	=7	=7	=7
4.AA	7	2c	4g	2cc
.	6	.	4fn	.
8BB-	.	.	.	.
4C;	.	4c;	4e;	4g;
4E	6	4c	4g	4cc
=8	=8	=8	=8	=8
!!linebreak:original
4F	.	4c	4f	4a
4F#X	-r7 5	4c	4e-X	4a
4G	.	4B-	4d	4g
4G#X	7 5	4Bn	4d	4fn
=9	=9	=9	=9	=9
4A	4	8EL	4d	2e
.	.	8FJ	.	.
4AA	#	4G	4c#X	.
4BB-;	.	4F;	4d;	4d;
4AA	#6\	4cn	4f#X	4a
=10	=10	=10	=10	=10
8GGL	.	4d	8gL	4b-
8AAJ	.	.	8fnJ	.
4BB-	6 4 2	4c	4e	4g
8AAL	6	4c	4f	4a
8BB-J	.	.	.	.
4C	.	8cL	4e	4g
.	.	8B-J	.	.
=11	=11	=11	=11	=11
2.FF;	.	2.A;	2.c;	2.f;
=||	=||	=||	=||	=||
*-	*-	*-	*-	*-
!!!system-decoration: s1,s2,s3,s4
